www/images/vector/logos/youtube.svg

<?xml version="1.0" encoding="UTF-8" standalone="no"?>
<svg width="244px" height="172px" viewBox="0 0 244 172" version="1.1" xmlns="http://www.w3.org/2000/svg" xmlns:xlink="http://www.w3.org/1999/xlink" xmlns:sketch="http://www.bohemiancoding.com/sketch/ns">
    <!-- Generator: Sketch 3.2.2 (9983) - http://www.bohemiancoding.com/sketch -->
    <title>Imported Layers</title>
    <desc>Created with Sketch.</desc>
    <defs></defs>
    <g id="Page-1" stroke="none" stroke-width="1" fill="none" fill-rule="evenodd" sketch:type="MSPage">
        <g id="Imported-Layers" sketch:type="MSLayerGroup">
            <path d="M96.8367546,49.0403338 L154.567202,87.7044506 L162.666667,83.488178 L96.8367546,49.0403338" id="Fill-1" fill="#E0E0E0" sketch:type="MSShapeGroup"></path>
            <path d="M241.38183,37.1464979 C241.38183,37.1464979 239.00122,20.3079611 231.696723,12.8928234 C222.432356,3.16035049 212.047926,3.11226704 207.285752,2.54244228 C173.193251,0.0708094576 122.052712,0.0708094576 122.052712,0.0708094576 L121.946811,0.0708094576 C121.946811,0.0708094576 70.8074643,0.0708094576 36.7137713,2.54244228 C31.9513587,3.11226704 21.5705064,3.16035049 12.3027996,12.8928234 C4.99830303,20.3079611 2.62127077,37.1464979 2.62127077,37.1464979 C2.62127077,37.1464979 0.184848485,56.9202782 0.184848485,76.6942976 L0.184848485,95.2322615 C0.184848485,115.005803 2.62127077,134.779583 2.62127077,134.779583 C2.62127077,134.779583 4.99830303,151.618359 12.3027996,159.033497 C21.5705064,168.76573 33.7445083,168.458092 39.1664125,169.478131 C58.6573138,171.352668 122,171.932779 122,171.932779 C122,171.932779 173.193251,171.855271 207.285752,169.383638 C212.047926,168.814053 222.432356,168.76573 231.696723,159.033497 C239.00122,151.618359 241.38183,134.779583 241.38183,134.779583 C241.38183,134.779583 243.814913,115.005803 243.814913,95.2322615 L243.814913,76.6942976 C243.814913,56.9202782 241.38183,37.1464979 241.38183,37.1464979 L241.38183,37.1464979 Z M96.8479648,117.696801 L96.8367546,49.0403338 L162.666667,83.488178 L96.8479648,117.696801 L96.8479648,117.696801 Z" id="Fill-2" fill="#FFFFFF" sketch:type="MSShapeGroup"></path>
        </g>
    </g>
</svg>

<svg width="244" height="172" viewBox="0 0 244 172" xmlns="http://www.w3.org/2000/svg"><title>Imported Layers</title><g fill="none" fill-rule="evenodd"><path d="M96.837 49.04l57.73 38.664 8.1-4.216-65.83-34.448" fill="#E0E0E0"/><path d="M241.382 37.146s-2.38-16.838-9.685-24.253c-9.265-9.733-19.65-9.78-24.41-10.35C173.192.07 122.052.07 122.052.07h-.106s-51.14 0-85.233 2.472c-4.763.57-15.143.618-24.41 10.35C4.997 20.31 2.62 37.147 2.62 37.147S.186 56.92.186 76.694v18.538c0 19.774 2.436 39.548 2.436 39.548S5 151.618 12.304 159.033c9.268 9.733 21.442 9.425 26.863 10.445 19.49 1.875 82.834 2.455 82.834 2.455s51.193-.078 85.286-2.55c4.762-.57 15.146-.617 24.41-10.35 7.305-7.415 9.686-24.253 9.686-24.253s2.433-19.774 2.433-39.548V76.694c0-19.774-2.433-39.548-2.433-39.548zm-144.534 80.55l-.01-68.656 65.83 34.448-65.82 34.21z" fill="#FFF"/></g></svg>
